FINK
CUT[MAEDEL MIT DEM ROTHEN MIEDER]
REG[Europa, Mitteleuropa, Deutschland]
KEY[F0161  16  G 2/4]
MEL[  1_3_3_5_  5_4_4_3_
    2_2_2__  13531__
    1_3_3_5_  5_4_4_3_
    2_2_2__  13531__
    1_6_6_6_  6_5_5__
    5_4_4_4_  4_3_3__
    2_2_2__  13531_3_
    2_2_2__  13531__
    1_6_6_6_  6_5_5__
    5_4_4_4_  4_3_3__
    2_2_2__  13531_3_
    2_2_2__  13531__ //] >>
FCT[Liebes - Lied]
